X:293
T: GELT DU WILLST MEIN SOHN HABEN
N: E0890A
O: Europa, Mitteleuropa, Deutschland, Hessen, Darmstadt
R: Hochzeits -, Ehestands - Lied, Scherz - Lied, Bettelhochzeit
M: 3/4
L: 1/16
K: G
G3B | d4d4d4 | B4G4
B3d | d2c2A4d4 | B4z4
G3B | d4d4d4 | B4G4
B3d | d2c2A4d4 | B4z4
B2d2 | d2c2c2c2A2c2 | c2B2B2B2
G3B | d4B4A4 | G4z4
B2d2 | d2c2c2c2A2c2 | c2B2B2B2
G3B | d4B4A4 | G4z4

